!!!COM: Mozart
!!!OTL: Zehn Variationen in G, uber die Ariette 'Unser dummer Pobel meint' aus dem Singspiel 'Die Pilgrime von Mekka'
!!!Variation: Variation 10 d
**function	**harm	**kern	**kern
*	*	*clefF4	*clefG2
*	*	*k[f#]	*k[f#]
*M4/4	*M4/4	*M4/4	*M4/4
*G:	*G:	*G:	*G:
=262	=262	=262	=262
1D	1Ic	1r	8r
.	.	.	(16aa#LL
.	.	.	16cccJJ
.	.	.	8bbL)
.	.	.	(16ff#L
.	.	.	16aaJJ
.	.	.	8ggL)
.	.	.	(16cc#L
.	.	.	16eeJJ
.	.	.	8ddL)
.	.	.	(16a#L
.	.	.	16ccJJ)
=263	=263	=263	=263
1D	1Ic	1r	16bLL
.	.	.	16dd
.	.	.	16f#
.	.	.	16aJJ
.	.	.	16gLL
.	.	.	16b
.	.	.	16c#
.	.	.	16eJJ
.	.	.	16dLL
.	.	.	16g
*	*	*	*clefF4
.	.	.	16A#
.	.	.	16cJJ
.	.	.	16BLL
.	.	.	16d
.	.	.	16F#
.	.	.	16AJJ
=264	=264	=264	=264
1D	1Ic	1r	24GLL
.	.	.	24B
.	.	.	24AJ
.	.	.	24GL
.	.	.	24F#
.	.	.	24EJJ
.	.	.	24DLL
.	.	.	24G
.	.	.	24F#J
.	.	.	24EL
.	.	.	24D
.	.	.	24CJJ
.	.	.	24BBLL
.	.	.	24E
.	.	.	24DJ
.	.	.	24CL
.	.	.	24BB
.	.	.	24AAJJ
.	.	.	24GGLL
.	.	.	24BB
.	.	.	24AAJ
.	.	.	24GGL
.	.	.	24FF#
.	.	.	24EEJJ
=265	=265	=265	=265
1D	1V7	1r	8.DD;L
.	.	.	16FF#Jk
.	.	.	16EELL
.	.	.	16GG
.	.	.	16FF#
.	.	.	16AAJJ
.	.	.	16GGLL
.	.	.	16BB
.	.	.	16AA
.	.	.	16CJJ
.	.	.	16BBLL
.	.	.	16D
.	.	.	16C
.	.	.	16EJJ
=266	=266	=266	=266
1D	1V7	1r	32DLLL
.	.	.	32F#
.	.	.	32E
.	.	.	32GJJ
.	.	.	32F#LL
.	.	.	32A
.	.	.	32G
.	.	.	32BJJJ
*	*	*	*clefG2
.	.	.	32ALLL
.	.	.	32c
.	.	.	32B
.	.	.	32dJJ
.	.	.	32cLL
.	.	.	32e
.	.	.	32d
.	.	.	32f#JJJ
.	.	.	32eLLL
.	.	.	32g
.	.	.	32f#
.	.	.	32aJJ
.	.	.	32gLL
.	.	.	32b
.	.	.	32a
.	.	.	32ccJJJ
.	.	.	32bLLL
.	.	.	32dd
.	.	.	32cc
.	.	.	32eeJJ
.	.	.	32ddLL
.	.	.	32ff#
.	.	.	32ee
.	.	.	32ggJJJ
=267	=267	=267	=267
1D	1V7	1r	32ff#LLL
.	.	.	32aa
.	.	.	32gg
.	.	.	32bbJJ
.	.	.	32aaLL
.	.	.	32ccc
.	.	.	32bb
.	.	.	32dddJJJ
.	.	.	[4ccc
.	.	.	16cccLL]
.	.	.	(16aa
.	.	.	16ff#
.	.	.	16ddJJ
.	.	.	16cc#LL
.	.	.	16cc
.	.	.	16a
.	.	.	16f#JJ)
=268	=268	=268	=268
*M3/8	*M3/8	*M3/8	*M3/8
*	*	*clefG2	*
4.D	4.V	4.r	16dLL
.	.	.	16a
.	.	.	16f#
.	.	.	16a
.	.	.	16f#
.	.	.	16aJJ
=269	=269	=269	=269
4.D	4.V7	8cccL	16dLL
.	.	.	16a
.	.	8ccc	16f#
.	.	.	16a
.	.	16cccL	16f#
.	.	16dddJJ	16aJJ
=270	=270	=270	=270
4.D	4.Cc	8bbL	16dLL
.	.	.	16b
.	.	8bb	16g
.	.	.	16b
.	.	16bbL	16g
.	.	16cccJJ	16bJJ
=271	=271	=271	=271
4.D	4.V7	8aaL	16dLL
.	.	.	16cc
.	.	8aa	16a
.	.	.	16cc
.	.	16aaL	16a
.	.	16bbJJ	16ccJJ
=272	=272	=272	=272
4.D	4.Ic	8gg	16dLL
.	.	.	16dd
.	.	8r	16b
.	.	.	16dd
.	.	8r	16b
.	.	.	16ddJJ
*	*	*clefF4	*
=273	=273	=273	=273
4.D	4.V7b	8F#L	16dLL
.	.	.	16cc
.	.	8F#	16a
.	.	.	16cc
.	.	16F#L	16a
.	.	16DJJ	16ccJJ
=274	=274	=274	=274
4.D	4.I	8GL	16dLL
.	.	.	16b
.	.	8G	16g
.	.	.	16b
.	.	16GL	16g
.	.	16DJJ	16bJJ
=275	=275	=275	=275
4.D	4.V7c	8AL	16dLL
.	.	.	16a
.	.	8A	16f#
.	.	.	16a
.	.	16AL	16f#
.	.	16DJJ	16aJJ
=276	=276	=276	=276
4.D	4.Ib	8B	16dLL
.	.	.	16g
.	.	8r	16f#
.	.	.	16g
.	.	8r	16f#
.	.	.	16gJJ
*	*	*clefG2	*
=277	=277	=277	=277
4.D	4.V7	8cccL	16dLL
.	.	.	16a
.	.	8ccc	16f#
.	.	.	16a
.	.	16cccL	16f#
.	.	16dddJJ	16aJJ
=278	=278	=278	=278
4.D	4.Ic	8bb-L	16dLL
.	.	.	16b-
.	.	8bb-	16g
.	.	.	16b-
.	.	16bb-L	16g
.	.	16cccJJ	16b-JJ
=279	=279	=279	=279
4.D	4.V7	8aaL	16dLL
.	.	.	16cc
.	.	8aa	16a
.	.	.	16cc
.	.	16aaL	16a
.	.	16bb-JJ	16ccJJ
=280	=280	=280	=280
4.D	4.Ic	8gg	16dLL
.	.	.	16dd
.	.	8r	16b-
.	.	.	16dd
.	.	8r	16b-
.	.	.	16ddJJ
*	*	*clefF4	*
=281	=281	=281	=281
4.D	4.V7b	8F#L	16dLL
.	.	.	16cc
.	.	8F#	16a
.	.	.	16cc
.	.	16F#L	16a
.	.	16DJJ	16ccJJ
=282	=282	=282	=282
4.D	4.i	8GL	16dLL
.	.	.	16b-
.	.	8G	16g
.	.	.	16b-
.	.	16GL	16g
.	.	16DJJ	16b-JJ
=283	=283	=283	=283
4.D	4.V7c	8AL	16dLL
.	.	.	16a
.	.	8A	16f#
.	.	.	16a
.	.	16AL	16f#
.	.	16DJJ	16aJJ
=284	=284	=284	=284
4.D	4.ib	8B	16dLL
.	.	.	16g
.	.	8r	16f#
.	.	.	16g
.	.	8r	16f#
.	.	.	16gJJ
*	*	*clefG2	*
=285	=285	=285	=285
4.D	4.V	8dddL	16dLL
.	.	.	16a
.	.	8ddd	16f#
.	.	.	16a
.	.	16dddL	16f#
.	.	16aaJJ	16aJJ
=286	=286	=286	=286
4.D	4.Ic	8bb-	16dLL
.	.	.	16b-
.	.	8r	16g
.	.	.	16b-
.	.	8r	16g
.	.	.	16b-JJ
*	*	*clefF4	*
=287	=287	=287	=287
4.D	4.V7b	8F#L	16dLL
.	.	.	16cc
.	.	8F#	16a
.	.	.	16cc
.	.	16F#L	16a
.	.	16DJJ	16ccJJ
=288	=288	=288	=288
4.D	4.i	8G	16dLL
.	.	.	16b-
.	.	8r	16g
.	.	.	16b-
.	.	8r	16g
.	.	.	16b-JJ
*	*	*clefG2	*
=289	=289	=289	=289
4.D	4.V/-VI	8bb-L	16B-LL
.	.	.	16f
.	.	8bb-	16d
.	.	.	16f
.	.	16bb-L	16d
.	.	16ffJJ	16fJJ
=290	=290	=290	=290
4.D	4.Ic/-VI	8gg	16B-LL
.	.	.	16g
.	.	8r	16e-
.	.	.	16g
.	.	8r	16e-
.	.	.	16gJJ
*	*	*clefF4	*
=291	=291	=291	=291
4.D	4.V7b/-VI	8DL	16B-LL
.	.	.	16a-
.	.	8D	16f
.	.	.	16a-
.	.	16DL	16f
.	.	16BB-JJ	16a-JJ
=292	=292	=292	=292
4.D	4.I/-VI	8E-	16B-LL
.	.	.	16g
.	.	8r	16e-
.	.	.	16g
.	.	8r	16e-
.	.	.	16gJJ
*	*	*clefG2	*
=293	=293	=293	=293
4.D	4.V/iv	8ggnL	16GLL
.	.	.	16d
.	.	8gg	16B
.	.	.	16d
.	.	16ggL	16B
.	.	16ddnJJ	16dJJ
=294	=294	=294	=294
4.D	4.ic/iv	8ee-	16GLL
.	.	.	16e-
.	.	8r	16c
.	.	.	16e-
.	.	8r	16c
.	.	.	16e-JJ
*	*	*clefF4	*
=295	=295	=295	=295
4.D	4.V7b/iv	8BBnL	16GLL
.	.	.	16f
.	.	8BB	16d
.	.	.	16f
.	.	16BBL	16d
.	.	16GGJJ	16fJJ
=296	=296	=296	=296
4.D	4.iv	4.C	16GLL
.	.	.	16e-
.	.	.	16c
.	.	.	16e-
.	.	.	16c
.	.	.	16e-JJ
=297	=297	=297	=297
4.D	4.ivb	4.E-	16GLL
.	.	.	16e-
.	.	.	16c
.	.	.	16e-
.	.	.	16c
.	.	.	16e-JJ
=298	=298	=298	=298
4.D	4.Nb	4.C	16A-LL
.	.	.	16e-
.	.	.	16c
.	.	.	16e-
.	.	.	16c
.	.	.	16e-JJ
=299	=299	=299	=299
4.D	4.N	4.AA-	16A-LL
.	.	.	16e-
.	.	.	16c
.	.	.	16e-
.	.	.	16c
.	.	.	16e-JJ
=300	=300	=300	=300
4.D	4.viioD7	4.FF#	16AnLL
.	.	.	16e-
.	.	.	16c
.	.	.	16e-
.	.	.	16c
.	.	.	16e-JJ
=301	=301	=301	=301
4.D	4.viioD7d	4.EE-	16AnLL
.	.	.	16e-
.	.	.	16c
.	.	.	16e-
.	.	.	16c
.	.	.	16e-JJ
=302	=302	=302	=302
4.D	4.viioD7c	4.CC	16cnLL
.	.	.	16f#
.	.	.	16e-
.	.	.	16f#
.	.	.	16e-
.	.	.	16f#JJ
=303	=303	=303	=303
4.D	4.viiob	4.AAAn	16cnLL
.	.	.	16f#
.	.	.	16e-
.	.	.	16f#
.	.	.	16e-
.	.	.	16f#JJ
=304	=304	=304	=304
4.D	4.viio	[4FFF#;	4c; 4a;
.	.	16FFF#LL]	8r
.	.	16AAAJJ	.
=305	=305	=305	=305
4.D	4.V	16DDLL	4.r
.	.	16FF#	.
.	.	16AA	.
.	.	16D	.
.	.	16F#	.
.	.	16AJJ	.
=306	=306	=306	=306
4.D	4.V	4.r	16dLL
.	.	.	16f#
.	.	.	16a
.	.	.	16dd
.	.	.	16ff#
.	.	.	16aaJJ
=307	=307	=307	=307
4.D	4.V7	4.r	8ccc
.	.	.	8r
.	.	.	8r
*	*	*clefG2	*
=308	=308	=308	=308
4.D	4.V7	8d'L 8a'	8cc'L 8ff#'
.	.	8d' 8a'	8cc' 8ff#'
.	.	(8dJ 8a	(8ccJ 8ff#
=309	=309	=309	=309
4.D	4.vi	8e) 8g	8b) 8gg
.	.	8r	8r
.	.	8r	8r
=310	=310	=310	=310
4.D	4.V7/vi	8B'L 8f#'	8a'L 8dd#'
.	.	8B' 8f#'	8a' 8dd#'
.	.	(8BJ 8f#	(8aJ 8dd#
=311	=311	=311	=311
4D	4IV	8c) 8e	8g) 8ee
.	.	8r	8r
*	*	*clefF4	*
8D	8viioD7/ii	(8G# 8d	(8f 8b
=312	=312	=312	=312
4D	4ii	8A) 8c	8e) 8cc
.	.	8r	8r
8D	8Cto7	(8A# 8e	(8gn 8cc#
=313	=313	=313	=313
4D	4Ib	8B) 8d	8f#) 8dd
.	.	8r	8r
8+D	8I+b	(8BB 8B	(8gn 8dd#
=314	=314	=314	=314
4D	4IV	8C) 8c	8g) 8ee
.	.	8r	8r
8D	8V7b/V	(8CC# 8C#	8en 8g 8a
=315	=315	=315	=315
4.D	4.Cc	4.DD) 4.D	4.d 4.g [4.b
=316	=316	=316	=316
4.D	4.Cc	4.r	(32bLLL]
.	.	.	32dd
.	.	.	32cc
.	.	.	32bJJ
.	.	.	32ccLL
.	.	.	32dd
.	.	.	32ee
.	.	.	32ff#JJ
.	.	.	32ggLL
.	.	.	32aa
.	.	.	32bb
.	.	.	32cccJJJ
=317	=317	=317	=317
4.D	4.Cc	4.r	8ddd)
.	.	.	8r
.	.	.	16.r
.	.	.	32g
=318	=318	=318	=318
4.D	4.V7	4.r	[4cc
.	.	.	16.ccLK]
.	.	.	96bLLL
.	.	.	96a
.	.	.	96gJJJJ
=319	=319	=319	=319
4.D	4.V7	4.r	[4.a
=320	=320	=320	=320
4.D	4.V7	4.r	4.a_
=321	=321	=321	=321
4.D	4.V7	[4.D [4.F# [4.c	4a]
.	.	.	8g
=322	=322	=322	=322
4.D	4.V7	4.D] 4.F#] 4.c]	(8bL
.	.	.	8.a)
.	.	.	16g'Jk
*-	*-	*-	*-
